X: 431
T: Biz Âlûde-i Sâgâr-ı Bâdeyiz
C: Hâfız Post
O: Turkey
F: http://compmusic.upf.edu/node/140
N: rehavi--nakis--yuruksemai--biz_alude-i--hafiz_post
N: makam= rehavi
N: form= nakis
N: usul= yuruksemai = 6/8
M: 6/8
L: 1/16
K: C _1/4B ^f  
Q: 1/4=102
%%MIDI tuningsystem comma53
e2d2 c2B2 A2B2  | d2c2 B2A6  | c2B2 A2G6  | \
w:  Biz_ â *  lû  |  de  i  *  sâ  |  gar_ ı  *  bâ  | 
e2d2 c2B2 {=f}e2d2  | d8-d2z2  | 
w:  de yiz   |  yâr    | 
e2d2 c2B6  | d2c2 B2A4z2  | c2B2 A2G4z2  | \
w:  Ye  lel  *  lel   |  le  lel  *  lel   |  le  lel  *  lel   | 
G4 A2G2 {=f}e2d2  | d8-d2z2  | 
w:  lel  le  le  *  li   |  yâr    | 
e2d2 c2B2 A2B2  | d2c2 B2A6  | c2B2 A2G6  | \
w:  Biz  â *  lû  |  de i  *  sâ  |  gar_ ı  *  bâ  | 
D2D4D2 B2A2  | G8-G2z2  | 
w:  de yiz   |  yâr    | 
e2d2 c2B2 A2B2  | d2c2 B2A6  | c2B2 A2G6  | \
w:  Biz_ â *  lû  |  de  i  *  sâ  |  gar_ ı  *  bâ  | 
e2d2 c2B2 {=f}e2d2  | d8-d2z2  | 
w:  de yiz   |  yâr    | 
e2d2 c2B6  | d2c2 B2A4z2  | c2B2 A2G4z2  | \
w:  Ye  lel  *  lel   |  le  lel  *  lel   |  le  lel  *  lel   | 
G4 A2G2 {=f}e2d2  | d8-d2z2  | 
w:  lel  le  le  *  li   |  yâr    | 
e2d2 c2B2 A2B2  | d2c2 B2A6  | c2B2 A2G6  | \
w:  Biz  â *  lû  |  de i  *  sâ  |  gar_ ı  *  bâ  | 
D2D4D2 B2A2  | G8-G2z2  | 
w:  de yiz   |  yâr    | 
a2g2 f2g2 a2b2  | a2g2 f2g6  | d'2c'2 b2ag fed2  | \
w:  A cep  *  der  |  di miz  *  var   |  so rar *  sa   | 
e2f2 g2f2 b2a2  | 
w:  bi zi   | 
g8-g2z2  | d2g4=f2 e2d2  | c2e4d2 c2B2  | \
w:  yâr    |  Ye  lel  lel   |  le  lel  lel   | 
d2c2 B2A4B2  | G4 A2G2 e2d2  | 
w:  le  lel  *  lel   |  lel  le  le  li   | 
d8-d2z2  | e2d2 c2B2 A2B2  | d2c2 B2A6  | \
w:  yâr    |  A cep  *  der  |  di miz  *  var   | 
c2B2 A2G6  | D2D4D2 B2A2  | 
w:  so rar *  sa   |  bi zi   | 
G8-G2z2  | e2d2 c2B2 A2B2  | d2c2 B2A6  | \
w:  yâr    |  Ra kîb_ i  |  le  her  *  dem   | 
c2B2 A2G6  | e2d2 c2B2 {=f}e2d2  | 
w:  mü dâ *  râ  |  da yız   | 
d8-d2z2  | e2d2 c2B6  | d2c2 B2A4z2  | c2B2 A2G4z2  | \
w:  yâr    |  Ye  lel  *  lel   |  le  lel  *  lel   |  le  lel  *  lel   | 
G4 A2G2 {=f}e2d2  | 
w:  lel  le  le  *  li   | 
d8-d2z2  | e2d2 c2B2 A2B2  | d2c2 B2A6  | \
w:  yâr    |  Ra kîb_ *  i  |  le  her  *  dem   | 
c2B2 A2G6  | D2D4D2 B2A2  | 
w:  mü dâ *  râ  |  da yız   | 
G8-G2z2  | |


